public/careers/Salary.svg

<svg width="45" height="45" viewBox="0 0 45 45" fill="none" xmlns="http://www.w3.org/2000/svg">
<circle cx="22.5" cy="22.5" r="22.5" fill="#BFBFFF" fill-opacity="0.3"/>
<path d="M32.75 17H13.25C12.8358 17 12.5 17.3358 12.5 17.75V28.25C12.5 28.6642 12.8358 29 13.25 29H32.75C33.1642 29 33.5 28.6642 33.5 28.25V17.75C33.5 17.3358 33.1642 17 32.75 17Z" stroke="#6B59ED" stroke-width="1.5" stroke-linecap="round" stroke-linejoin="round"/>
<path d="M23 26C24.6569 26 26 24.6569 26 23C26 21.3431 24.6569 20 23 20C21.3431 20 20 21.3431 20 23C20 24.6569 21.3431 26 23 26Z" stroke="#6B59ED" stroke-width="1.5" stroke-linecap="round" stroke-linejoin="round"/>
<path d="M27.5 17L33.5 22.25" stroke="#6B59ED" stroke-width="1.5" stroke-linecap="round" stroke-linejoin="round"/>
<path d="M27.5 29L33.5 23.75" stroke="#6B59ED" stroke-width="1.5" stroke-linecap="round" stroke-linejoin="round"/>
<path d="M18.5 17L12.5 22.25" stroke="#6B59ED" stroke-width="1.5" stroke-linecap="round" stroke-linejoin="round"/>
<path d="M18.5 29L12.5 23.75" stroke="#6B59ED" stroke-width="1.5" stroke-linecap="round" stroke-linejoin="round"/>
</svg>

<svg width="45" height="45" fill="none" xmlns="http://www.w3.org/2000/svg"><circle cx="22.5" cy="22.5" r="22.5" fill="#BFBFFF" fill-opacity=".3"/><path d="M32.75 17h-19.5a.75.75 0 0 0-.75.75v10.5c0 .414.336.75.75.75h19.5a.75.75 0 0 0 .75-.75v-10.5a.75.75 0 0 0-.75-.75Z" stroke="#6B59ED" stroke-width="1.5" stroke-linecap="round" stroke-linejoin="round"/><path d="M23 26a3 3 0 1 0 0-6 3 3 0 0 0 0 6ZM27.5 17l6 5.25M27.5 29l6-5.25M18.5 17l-6 5.25M18.5 29l-6-5.25" stroke="#6B59ED" stroke-width="1.5" stroke-linecap="round" stroke-linejoin="round"/></svg>
